icons/arrow-rounded-downleft.svg

<svg width="24" height="24" viewBox="0 0 24 24" fill="none" xmlns="http://www.w3.org/2000/svg">
<path fill-rule="evenodd" clip-rule="evenodd" d="M7.35528 16.9304C7.06239 17.2232 6.58751 17.2232 6.29462 16.9304L3.79462 14.4304C3.30173 13.9375 3.30173 13.1626 3.79462 12.6697L6.29462 10.1697C6.58751 9.8768 7.06239 9.8768 7.35528 10.1697C7.64817 10.4626 7.64817 10.9375 7.35528 11.2304L5.03561 13.55L7.35528 15.8697C7.64817 16.1626 7.64817 16.6375 7.35528 16.9304Z" fill="black"/>
<path fill-rule="evenodd" clip-rule="evenodd" d="M20.575 10.6C20.575 12.7142 18.9392 14.35 16.825 14.35L4.22495 14.35C3.81074 14.35 3.47495 14.0142 3.47495 13.6C3.47495 13.1858 3.81074 12.85 4.22495 12.85L16.825 12.85C18.1107 12.85 19.075 11.8858 19.075 10.6C19.075 9.31419 18.1107 8.34997 16.825 8.34997H12.825C12.4107 8.34997 12.075 8.01419 12.075 7.59997C12.075 7.18576 12.4107 6.84997 12.825 6.84997H16.825C18.9392 6.84997 20.575 8.48576 20.575 10.6Z" fill="black"/>
</svg>

<svg xmlns="http://www.w3.org/2000/svg" fill="none" viewBox="0 0 24 24">
  <path fill="#000" fill-rule="evenodd" d="M7.355 16.93a.75.75 0 0 1-1.06 0l-2.5-2.5a1.233 1.233 0 0 1 0-1.76l2.5-2.5a.75.75 0 1 1 1.06 1.06l-2.32 2.32 2.32 2.32a.75.75 0 0 1 0 1.06Z" clip-rule="evenodd"/>
  <path fill="#000" fill-rule="evenodd" d="M20.575 10.6c0 2.114-1.636 3.75-3.75 3.75h-12.6a.75.75 0 0 1 0-1.5h12.6c1.286 0 2.25-.964 2.25-2.25s-.964-2.25-2.25-2.25h-4a.75.75 0 1 1 0-1.5h4c2.114 0 3.75 1.636 3.75 3.75Z" clip-rule="evenodd"/>
</svg>
